icons/direction-fill.svg

<svg viewBox="0 0 24 24" fill="currentColor" xmlns="http://www.w3.org/2000/svg"><path d="M9.00008 10.0001C8.4478 10.0001 8.00008 10.4478 8.00008 11.0001V15.0001H10.0001V12.0001H13.0001V14.5001L16.5001 11.0001L13.0001 7.50008V10.0001H9.00008ZM12.7072 1.39348L22.6067 11.293C22.9972 11.6835 22.9972 12.3167 22.6067 12.7072L12.7072 22.6067C12.3167 22.9972 11.6835 22.9972 11.293 22.6067L1.39348 12.7072C1.00295 12.3167 1.00295 11.6835 1.39348 11.293L11.293 1.39348C11.6835 1.00295 12.3167 1.00295 12.7072 1.39348Z"/></svg>

<svg xmlns="http://www.w3.org/2000/svg" viewBox="0 0 24 24">
    <g>
        <path fill="none" d="M0 0h24v24H0z"/>
        <path d="M9 10a1 1 0 0 0-1 1v4h2v-3h3v2.5l3.5-3.5L13 7.5V10H9zm3.707-8.607l9.9 9.9a1 1 0 0 1 0 1.414l-9.9 9.9a1 1 0 0 1-1.414 0l-9.9-9.9a1 1 0 0 1 0-1.414l9.9-9.9a1 1 0 0 1 1.414 0z"/>
    </g>
</svg>
